public/assets/tiktok.svg

<svg width="100" height="100" viewBox="0 0 100 100" fill="none" xmlns="http://www.w3.org/2000/svg">
<path d="M50 0C22.39 0 0 22.39 0 50C0 77.61 22.39 100 50 100C77.61 100 100 77.61 100 50C100 22.39 77.61 0 50 0ZM75.084 38.2564V45.0266C71.8916 45.0277 68.7898 44.4021 65.8645 43.168C63.9834 42.3738 62.2309 41.3506 60.6279 40.1141L60.676 60.9525C60.6559 65.6449 58.7994 70.0537 55.4395 73.3746C52.7051 76.0777 49.2402 77.7967 45.4848 78.3531C44.6023 78.4838 43.7043 78.5508 42.7961 78.5508C38.776 78.5508 34.9594 77.2484 31.8373 74.8457C31.2498 74.3934 30.6879 73.9029 30.1529 73.3746C26.5115 69.7756 24.6338 64.8979 24.95 59.7664C25.1912 55.8604 26.7551 52.1352 29.3621 49.2154C32.8113 45.3518 37.6367 43.2072 42.7961 43.2072C43.7043 43.2072 44.6023 43.2754 45.4848 43.4061V45.9092V52.8725C44.648 52.5965 43.7545 52.4447 42.824 52.4447C38.1104 52.4447 34.2969 56.2904 34.3674 61.0076C34.4121 64.0258 36.0607 66.6641 38.4924 68.1184C39.6352 68.8019 40.9498 69.2254 42.3527 69.3023C43.452 69.3627 44.5074 69.2096 45.4848 68.8869C48.8525 67.7744 51.282 64.6111 51.282 60.8803L51.2932 46.9258V21.4492H60.6166C60.6256 22.373 60.7193 23.2744 60.8936 24.1479C61.5973 27.6832 63.59 30.7504 66.3635 32.8414C68.7818 34.6654 71.7932 35.7467 75.057 35.7467C75.0592 35.7467 75.0861 35.7467 75.0838 35.7445V38.2564H75.084Z" fill="#F7D59C"/>
</svg>

<svg width="100" height="100" fill="none" xmlns="http://www.w3.org/2000/svg"><path d="M50 0C22.39 0 0 22.39 0 50s22.39 50 50 50 50-22.39 50-50S77.61 0 50 0Zm25.084 38.256v6.77a23.57 23.57 0 0 1-9.22-1.858 23.556 23.556 0 0 1-5.236-3.054l.048 20.839c-.02 4.692-1.877 9.1-5.236 12.422a17.82 17.82 0 0 1-9.955 4.978c-.883.13-1.78.198-2.689.198-4.02 0-7.837-1.303-10.959-3.705a18.182 18.182 0 0 1-1.684-1.471c-3.641-3.6-5.52-8.477-5.203-13.609a17.49 17.49 0 0 1 4.412-10.55c3.45-3.864 8.275-6.009 13.434-6.009.908 0 1.806.068 2.689.2V52.872a8.477 8.477 0 0 0-2.661-.428c-4.714 0-8.527 3.845-8.457 8.563.045 3.018 1.694 5.656 4.125 7.11a8.403 8.403 0 0 0 3.86 1.184c1.1.06 2.155-.092 3.133-.415 3.367-1.113 5.797-4.276 5.797-8.007l.011-13.954V21.449h9.324c.009.924.102 1.825.277 2.699a14.42 14.42 0 0 0 5.47 8.693 14.388 14.388 0 0 0 8.693 2.906c.002 0 .03 0 .027-.002v2.511Z" fill="#F7D59C"/></svg>
